Newaita-dark/actions/16/sort-name.svg

<svg height="16" viewBox="0 0 16 16" width="16" xmlns="http://www.w3.org/2000/svg"><g fill="#e0e0e0"><path d="m14.222656 3.761719h-8.269531c-.183594 0-.332031-.144531-.332031-.328125v-.664063c0-.179687.148437-.328125.332031-.328125h8.269531c.183594 0 .332032.148438.332032.328125v.664063c0 .183594-.148438.328125-.332032.328125zm0 0"/><path d="m14.222656 8.726562h-8.269531c-.183594 0-.332031-.148437-.332031-.332031v-.660156c0-.183594.148437-.332031.332031-.332031h8.269531c.183594 0 .332032.148437.332032.332031v.660156c0 .183594-.148438.332031-.332032.332031zm0 0"/><path d="m14.222656 13.6875h-8.269531c-.183594 0-.332031-.148438-.332031-.332031v-.660157c0-.183593.148437-.332031.332031-.332031h8.269531c.183594 0 .332032.148438.332032.332031v.660157c0 .183593-.148438.332031-.332032.332031zm0 0"/><path d="m2.976562 1.449219c-.914062 0-1.652343.738281-1.652343 1.652343v3.472657c0 .09375.074219.164062.164062.164062h.332031c.089844 0 .164063-.070312.164063-.164062v-1.820313h1.984375v1.820313c0 .09375.074219.164062.164062.164062h.332032c.09375 0 .164062-.070312.164062-.164062v-3.472657c0-.914062-.734375-1.652343-1.652344-1.652343zm0 .660156c.550782 0 .992188.441406.992188.992187v.992188h-1.984375v-.992188c0-.550781.441406-.992187.992187-.992187zm0 0"/><path d="m2.644531 9.375c-.03125 0-.0625.003906-.089843.011719h-1.066407c-.089843 0-.164062.074219-.164062.164062v.332031c0 .089844.074219.164063.164062.164063h1.0625c.03125.007813.0625.011719.09375.011719h1.0625l-2.351562 4.117187c-.058594.109375-.058594.238281 0 .34375.0625.105469.175781.171875.296875.171875h1.324218c.03125 0 .0625-.003906.09375-.011718h1.394532c.09375 0 .164062-.074219.164062-.167969v-.328125c0-.09375-.070312-.167969-.164062-.167969h-1.394532c-.03125-.007813-.0625-.011719-.09375-.011719h-.730468l2.351562-4.117187c.0625-.105469.058594-.234375 0-.339844-.0625-.109375-.175781-.171875-.296875-.171875zm0 0"/></g></svg>

<svg xmlns="http://www.w3.org/2000/svg" xmlns:xlink="http://www.w3.org/1999/xlink" width="16px" height="16px" viewBox="0 0 16 16" version="1.1">
<g id="surface1">
     <defs>
  <style id="current-color-scheme" type="text/css">
   .ColorScheme-Text { color:#eeeeee; } .ColorScheme-Highlight { color:#424242; }
  </style>
 </defs>
<path style="fill:currentColor" class="ColorScheme-Text" d="M 14.222656 3.761719 L 5.953125 3.761719 C 5.769531 3.761719 5.621094 3.617188 5.621094 3.433594 L 5.621094 2.769531 C 5.621094 2.589844 5.769531 2.441406 5.953125 2.441406 L 14.222656 2.441406 C 14.40625 2.441406 14.554688 2.589844 14.554688 2.769531 L 14.554688 3.433594 C 14.554688 3.617188 14.40625 3.761719 14.222656 3.761719 Z M 14.222656 3.761719 "/>
     <defs>
  <style id="current-color-scheme" type="text/css">
   .ColorScheme-Text { color:#eeeeee; } .ColorScheme-Highlight { color:#424242; }
  </style>
 </defs>
<path style="fill:currentColor" class="ColorScheme-Text" d="M 14.222656 8.726562 L 5.953125 8.726562 C 5.769531 8.726562 5.621094 8.578125 5.621094 8.394531 L 5.621094 7.734375 C 5.621094 7.550781 5.769531 7.402344 5.953125 7.402344 L 14.222656 7.402344 C 14.40625 7.402344 14.554688 7.550781 14.554688 7.734375 L 14.554688 8.394531 C 14.554688 8.578125 14.40625 8.726562 14.222656 8.726562 Z M 14.222656 8.726562 "/>
     <defs>
  <style id="current-color-scheme" type="text/css">
   .ColorScheme-Text { color:#eeeeee; } .ColorScheme-Highlight { color:#424242; }
  </style>
 </defs>
<path style="fill:currentColor" class="ColorScheme-Text" d="M 14.222656 13.6875 L 5.953125 13.6875 C 5.769531 13.6875 5.621094 13.539062 5.621094 13.355469 L 5.621094 12.695312 C 5.621094 12.511719 5.769531 12.363281 5.953125 12.363281 L 14.222656 12.363281 C 14.40625 12.363281 14.554688 12.511719 14.554688 12.695312 L 14.554688 13.355469 C 14.554688 13.539062 14.40625 13.6875 14.222656 13.6875 Z M 14.222656 13.6875 "/>
     <defs>
  <style id="current-color-scheme" type="text/css">
   .ColorScheme-Text { color:#eeeeee; } .ColorScheme-Highlight { color:#424242; }
  </style>
 </defs>
<path style="fill:currentColor" class="ColorScheme-Text" d="M 2.976562 1.449219 C 2.0625 1.449219 1.324219 2.1875 1.324219 3.101562 L 1.324219 6.574219 C 1.324219 6.667969 1.398438 6.738281 1.488281 6.738281 L 1.820312 6.738281 C 1.910156 6.738281 1.984375 6.667969 1.984375 6.574219 L 1.984375 4.753906 L 3.96875 4.753906 L 3.96875 6.574219 C 3.96875 6.667969 4.042969 6.738281 4.132812 6.738281 L 4.464844 6.738281 C 4.558594 6.738281 4.628906 6.667969 4.628906 6.574219 L 4.628906 3.101562 C 4.628906 2.1875 3.894531 1.449219 2.976562 1.449219 Z M 2.976562 2.109375 C 3.527344 2.109375 3.96875 2.550781 3.96875 3.101562 L 3.96875 4.09375 L 1.984375 4.09375 L 1.984375 3.101562 C 1.984375 2.550781 2.425781 2.109375 2.976562 2.109375 Z M 2.976562 2.109375 "/>
     <defs>
  <style id="current-color-scheme" type="text/css">
   .ColorScheme-Text { color:#eeeeee; } .ColorScheme-Highlight { color:#424242; }
  </style>
 </defs>
<path style="fill:currentColor" class="ColorScheme-Text" d="M 2.644531 9.375 C 2.613281 9.375 2.582031 9.378906 2.554688 9.386719 L 1.488281 9.386719 C 1.398438 9.386719 1.324219 9.460938 1.324219 9.550781 L 1.324219 9.882812 C 1.324219 9.972656 1.398438 10.046875 1.488281 10.046875 L 2.550781 10.046875 C 2.582031 10.054688 2.613281 10.058594 2.644531 10.058594 L 3.707031 10.058594 L 1.355469 14.175781 C 1.296875 14.285156 1.296875 14.414062 1.355469 14.519531 C 1.417969 14.625 1.53125 14.691406 1.652344 14.691406 L 2.976562 14.691406 C 3.007812 14.691406 3.039062 14.6875 3.070312 14.679688 L 4.464844 14.679688 C 4.558594 14.679688 4.628906 14.605469 4.628906 14.511719 L 4.628906 14.183594 C 4.628906 14.089844 4.558594 14.015625 4.464844 14.015625 L 3.070312 14.015625 C 3.039062 14.007812 3.007812 14.003906 2.976562 14.003906 L 2.246094 14.003906 L 4.597656 9.886719 C 4.660156 9.78125 4.65625 9.652344 4.597656 9.546875 C 4.535156 9.4375 4.421875 9.375 4.300781 9.375 Z M 2.644531 9.375 "/>
</g>
</svg>
